build/category/BonusSolid.svg

<svg xmlns="http://www.w3.org/2000/svg" fill="none" viewBox="0 0 24 24" focusable="false"><path d="M0 0H24V24H0z"/><path fill="#74767B" fill-rule="evenodd" d="M12 4.05244C12.7931 2.88308 14.2973 2.29057 15.7517 2.75555C16.5603 3.01405 17.1683 3.68603 17.3449 4.51632L17.3629 4.60066C17.4959 5.2263 17.3849 5.83739 17.1014 6.34543C18.7113 6.39891 20 7.72083 20 9.34375L20 11.2827C20 11.6693 19.6866 11.9827 19.3 11.9827L16.4147 11.9827C16.0557 11.9827 15.7647 12.2737 15.7647 12.6327C15.7647 12.9917 16.0557 13.2827 16.4147 13.2827L19.3 13.2827C19.6866 13.2827 20 13.5961 20 13.9827L20 17C20 18.6569 18.6569 20 17 20L7 20C5.34315 20 4 18.6569 4 17L4 13.9827C4 13.5961 4.3134 13.2827 4.7 13.2827L7.58251 13.2827C7.9415 13.2827 8.23251 12.9917 8.23251 12.6327C8.23251 12.2737 7.9415 11.9827 7.58251 11.9827L4.7 11.9827C4.3134 11.9827 4 11.6693 4 11.2827L4 9.34375C4 7.72083 5.28868 6.3989 6.89859 6.34543C6.61509 5.83738 6.50406 5.2263 6.63714 4.60066L6.65508 4.51632C6.83169 3.68603 7.43971 3.01405 8.24827 2.75555C9.70266 2.29057 11.2069 2.88308 12 4.05244ZM10.0944 7.63744C9.78442 7.70947 9.55346 7.98741 9.55346 8.31929L9.55346 15.2569C9.55346 15.8523 10.2496 16.1759 10.7047 15.792L11.9929 14.8381L13.3503 15.792C13.8054 16.1759 14.5015 15.8523 14.5015 15.2569L14.5015 8.31929C14.5015 7.98741 14.2706 7.70947 13.9606 7.63744L10.0944 7.63744ZM12.6561 6.33744L14.9041 6.33744C15.6761 6.33744 16.2519 5.62624 16.0913 4.87114L16.0734 4.7868C15.9938 4.41286 15.72 4.11023 15.3559 3.99381C14.1645 3.61294 12.9182 4.40018 12.7503 5.63958L12.6559 6.33612L12.6561 6.33744ZM11.3441 6.33612L11.2497 5.63958C11.0818 4.40018 9.83545 3.61294 8.64414 3.99381C8.28 4.11023 8.00617 4.41286 7.92663 4.7868L7.90869 4.87114C7.74807 5.62624 8.3239 6.33744 9.09589 6.33744L11.3439 6.33744L11.3441 6.33612Z"/></svg>

<svg xmlns="http://www.w3.org/2000/svg" fill="none" viewBox="0 0 24 24" focusable="false"><path fill="#74767B" fill-rule="evenodd" d="M12 4.05a3.31 3.31 0 0 1 3.75-1.3c.81.26 1.41.93 1.59 1.76l.02.09c.13.62.02 1.23-.26 1.74 1.61.05 2.9 1.38 2.9 3v1.94c0 .38-.32.7-.71.7h-2.88c-.36 0-.65.29-.65.65s.29.65.65.65h2.88c.39 0 .71.31.71.7V17c0 1.65-1.35 3-3 3H7c-1.66 0-3-1.35-3-3v-3.02c0-.39.31-.7.7-.7h2.88c.36 0 .65-.29.65-.65s-.29-.65-.65-.65H4.7c-.39 0-.7-.32-.7-.7V9.34c0-1.62 1.28-2.95 2.89-3-.28-.51-.39-1.12-.26-1.74l.02-.09c.18-.83.78-1.5 1.59-1.76 1.46-.46 2.96.13 3.76 1.3m-1.91 3.58c-.31.07-.54.35-.54.68v6.94c0 .6.69.92 1.15.54l1.29-.96 1.36.96c.45.38 1.15.06 1.15-.54V8.31c0-.33-.23-.61-.54-.68zm2.56-1.3h2.25c.77 0 1.35-.71 1.19-1.46l-.02-.09c-.08-.37-.35-.67-.72-.79-1.19-.38-2.44.41-2.6 1.64zm-1.31 0-.1-.7c-.16-1.23-1.41-2.02-2.6-1.64-.37.12-.64.42-.72.79l-.02.09c-.16.75.42 1.46 1.19 1.46z"/></svg>
